!!! OTL: Berkowitz359
!!! Chapter: 1
!!! Section: III
!!! Page: 88
!!! Mode: 
!!! Encoder: DJB
**kern
*staff1
*I"Piano
=1-
*clefF4
*k[b-e-a-d-]
*A-:
*M4/4
16A-\LL
16B-\
16A-\
16G\JJ
16F\LL
16G\
16F\
16E-\JJ
16D-\LL
16E-\
16D-\
16C\JJ
16BB-/LL
16C/
16D-/
16BB-/JJ
=2
16E-\LL
16F\
16E-\
16D-\JJ
16C/LL
16D-/
16C/
16BB-/JJ
16C/LL
16AA-/
16BB-/
16C/JJ
16D-\LL
16E-\
16F\
16G\JJ
=3
!!linebreak:original
16A-\LL
16B-\
16A-\
16G\JJ
16F\LL
16G\
16F\
16E-\JJ
16Dn\LL
16E-\
16D\
16C\JJ
8BB-/L
16C/L
16D/JJ
=4
16E-\LL
16F\
16G\
16E-\JJ
16F\LL
16G\
16A-\
16F\JJ
8G\L
8E-\J
16r
16Dn\LL
16E-\
16En\JJ
=5
16F\LL
16G\
16F\
16E-\JJ
16C\LL
16E-\
16D-\
16C\JJ
16BB-/LL
16C/
16BB-/
16AA-/JJ
16GG/LL
16BB-/
16C/
16D-/JJ
=6
!!linebreak:original
16E-\LL
16F\
16E-\
16D-\JJ
16C/LL
16D-/
16C/
16BB-/JJ
16C/LL
16AA-/
16BB-/
16C/JJ
16D-\LL
16E-\
16F\
16G\JJ
=7
16A-\LL
16B-\
16A-\
16G\JJ
16A-\LL
16B-\
16c\
16A-\JJ
16r
16G\LL
16F\
16En\JJ
16F\LL
16G\
16A-\
16F\JJ
=8
16E-\LL
16F\
16G\
16A-\JJ
16F\LL
16G\
16A-\
16B-\JJ
16G\LL
16A-\
16B-\
16c\JJ
16B-\LL
16A-\
16G\
16F\JJ
=9
!!linebreak:original
16E-\LL
16F\
16E-\
16F\JJ
16E-/LL
16D-/
16C/
16BB-/JJ
8AA-/L
16BB-/L
16C/JJ
16D-\LL
16E-\
16F\
16G\JJ
=10
2.A-\
4r
==
*-
